X:1
T:The Worcester Christmas Carol
T:The Worcester Christmas Carol
T:William Henry Havergal (1793-1870)
T:Public Domain Courtesy of the Cyber Hymnal™
T:Public Domain Courtesy of the Cyber Hymnal™
C:William Henry Havergal (1793-1870)
Z:Public Domain
Z:Courtesy of the Cyber Hymnal™
%%score ( 1 2 ) ( 3 4 )
L:1/8
M:4/4
K:A
V:1 treble 
V:2 treble 
V:3 bass 
V:4 bass 
V:1
 [ce]4 | [ca]4 [db]3 [Bg] | [Aca]4 [Adf]4 | ([ce]2 c2) (B3 e) | [Ec]4 [CE]4 | [Ec]4 [DB]3 [DG] | %6
w: ~|~ ~ ~|~ ~|~ * ~ *|1. How|grand and how|
w: ~|~ ~ ~|~ ~|~ * ~ *|2. The|shep- herds were|
w: ~|~ ~ ~|~ ~|~ * ~ *|3. And|then, when the|
w: ~|~ ~ ~|~ ~|~ * ~ *|4. “I|bring you,” said|
w: ~|~ ~ ~|~ ~|~ * ~ *|5. At|men- tion of|
w: ~|~ ~ ~|~ ~|~ * ~ *|6. “All|glo- ry to|
w: ~|~ ~ ~|~ ~|~ * ~ *|7. “And|good will to|
 [CA]4 [CE]4 | [Ec]4 [DB]3 [DG] | [CA]4 [Ec]4 | [Ed]4 [Ec]3 [Ec] | [EB]4 [EA]2 [^DA]2 | %11
w: bright That|won- der- ful|night, When|an- gels to|Beth- le- hem|
w: mazed, The|pret- ty lambs|gazed At|dark- ness thus|turned in- to|
w: sound re-|ech- oed a-|round, The|hills and the|dales all a-|
w: he, “From|the glor- ious|Three, Good|tid- ings to|glad- den man-|
w: this, (The|source of all|bliss,) The|an- gels sang|loud- ly and|
w: God,” Who|laid by His|rod, To|smile on the|world through His|
w: man,” Though|his life’s a|span, And|his thoughts so|e- vil and|
 ([Ee]4 [Bg]3 [Af] | [Ge]4) [CE]4 | [Ec]4 [Ee]3 [DG] | [CA]4 [EG]4 | [DF]4 [Fd]2 [DB]2 | %16
w: came! * *|* They|burst forth like|fires, They|struck their gold|
w: light: * *|* No|voice was there|heard From|man, beast or|
w: woke: * *|* The|moon and the|stars Stopped|their fier- y|
w: kind; * *|* The|Sav- ior is|born, But|He lies for-|
w: long; * *|* The|soared to the|sky, Be-|yond mor- tal|
w: Son: * *|* “And|peace be on|earth,” For|this won- der-|
w: wrong; * *|* Then|pray, Christ- ians,|pray; But|let Christ- mas|
 [EG]4 [B,E]4 | (e2 c2) [CA]2 [FB]2 | E4 [Dc]3 [DB] | [CA]4 (a3 g) | [Adf]4 ([fa]3 [df]) | %21
w: lyres, And|min- * gled their|song with the|flame. * *||
w: bird, So|sud- * den and|sol- emn the|sight. * *||
w: cars, And|list- * ened while|Ga- bri- el|spoke: * *||
w: lorn In|a~man- * ger, as|soon you will|find.” * *||
w: eye, But|left * us the|words of their|song: * *||
w: ful birth|Won- * der- ful|con- quests has|won; * *||
w: day Have|your * sweet- est|and hol- iest|song. * *||
 [Ae]4 ([df]3 [FA]) | [EAc]4 ([Ge]3 [EG]) | !fermata![CEA]4 |] %24
w: |||
w: |||
w: |||
w: |||
w: |||
w: |||
w: |||
V:2
 x4 | x8 | x8 | A4 G4 | x8 | x8 | x8 | x8 | x8 | x8 | x8 | x8 | x8 | x8 | x8 | x8 | x8 | E4 x4 | %18
 E4 x4 | x4 [Fe]4 | x A4 x3 | x A4 x3 | x E4 x3 | x4 |] %24
V:3
 A,4 | A,4 E,4 | F,4 D,4 | E,4 E,4 | A,4 A,4 | [A,,A,]4 [E,G,]3 [E,B,] | [A,,A,]4 A,4 | %7
 [A,,A,]4 [E,G,]3 [E,B,] | [A,,A,]4 A,4 | [G,B,]4 A,3 A, | [G,B,]4 [F,C]2 [F,A,]2 | %11
 [E,G,]4 [E,B,]4- | [E,B,]4 A,4 | A,4 [E,G,]3 [E,B,] | [F,A,]4 [C,C]4 | [D,A,]4 [B,,B,]2 [B,,B,]2 | %16
 [E,B,]4 [D,G,]4 | [C,A,]4 [F,A,]2 [D,F,]2 | [E,G,]4 [E,G,]3 [E,G,] | [A,,A,]4 C,4 | D,4 D,4 | %21
 C,4 D,4 | E,4 [E,B,]4 | !fermata![A,,A,]4 |] %24
V:4
 x4 | x8 | x8 | x8 | x4 A,4 | x8 | x4 A,4 | x8 | x4 A,4 | x4 A,3 A, | x8 | x8 | x4 A,4 | A,4 x4 | %14
 x8 | x8 | x8 | x8 | x8 | x8 | x8 | x8 | x8 | x4 |] %24

